icons/steam.svg

<svg width="256" height="256" title="Steam" viewBox="0 0 256 256" fill="none" xmlns="http://www.w3.org/2000/svg">
<rect width="256" height="256" rx="40" fill="url(#linearGradient)"/>
<path d="M111.005 96.5853L111.016 97.164L82.34 138.823C77.6961 138.611 73.0376 139.427 68.6135 141.248C66.6876 142.03 64.8489 143.012 63.1273 144.177L1.46329e-05 118C1.46329e-05 118 0 140.5 0 157.5L49.2873 178.431C51.4847 188.422 58.3699 197.183 68.4853 201.394C76.4434 204.701 85.3885 204.714 93.3561 201.43C101.324 198.146 107.662 191.835 110.979 183.881C112.749 179.644 113.603 175.081 113.485 170.491L154.477 141.174L155.484 141.193C180.04 141.193 200 121.174 200 96.5853C200 71.9964 180.077 52.0513 155.484 52C130.939 52 110.968 71.9964 110.968 96.5853H111.005ZM104.12 181.002C98.7949 193.82 84.1016 199.852 71.331 194.531C65.6639 192.149 61.0704 187.767 58.4249 182.218L72.9168 188.224C75.1555 189.156 77.5559 189.638 79.9808 189.642C82.4057 189.646 84.8076 189.172 87.0493 188.247C89.2909 187.322 91.3284 185.965 93.0453 184.252C94.7621 182.54 96.1248 180.506 97.0553 178.267C98.9395 173.742 98.9506 168.654 97.0863 164.121C95.2219 159.589 91.6344 155.981 87.112 154.091L72.0964 147.884C77.8756 145.686 84.4458 145.613 90.5912 148.166C96.8172 150.74 101.578 155.589 104.127 161.79C106.676 167.99 106.662 174.828 104.091 181.002M155.524 126.305C147.656 126.284 140.116 123.145 134.558 117.576C128.999 112.007 125.874 104.461 125.867 96.5927C125.876 88.7253 129.001 81.1819 134.56 75.6143C140.119 70.0467 147.657 66.9087 155.524 66.8874C163.393 66.9068 170.933 70.0439 176.494 75.6117C182.054 81.1795 185.181 88.724 185.189 96.5927C185.183 104.463 182.057 112.009 176.496 117.578C170.936 123.148 163.394 126.286 155.524 126.305ZM133.301 96.5451C133.297 90.6329 135.639 84.9607 139.815 80.7751C143.99 76.5894 149.656 74.2328 155.568 74.2231C167.856 74.2231 177.85 84.2213 177.85 96.5451C177.853 102.458 175.508 108.131 171.329 112.315C167.151 116.5 161.482 118.854 155.568 118.86C149.657 118.851 143.991 116.496 139.815 112.312C135.639 108.127 133.298 102.457 133.301 96.5451Z" fill="white"/>
<linearGradient id="linearGradient" x1="128" y1="0" x2="128" y2="256" gradientUnits="userSpaceOnUse">
<stop stop-color="#051839"/>
<stop offset="0.25" stop-color="#0A1B48"/>
<stop offset="0.495" stop-color="#144B7E"/>
<stop offset="0.75" stop-color="#136497"/>
<stop offset="1" stop-color="#1387B8"/>
</linearGradient>
</svg>

<svg viewBox="0 0 256 256" xmlns="http://www.w3.org/2000/svg" xml:space="preserve" style="fill-rule:evenodd;clip-rule:evenodd;stroke-linejoin:round;stroke-miterlimit:2"><path d="M256 40v176c0 22.077-17.923 40-40 40H40c-22.077 0-40-17.923-40-40V40C0 17.923 17.923 0 40 0h176c22.077 0 40 17.923 40 40" style="fill:url(#a)"/><path d="m111.005 96.585.011.579-28.676 41.659c-4.644-.212-9.302.604-13.726 2.425a29.8 29.8 0 0 0-5.487 2.929l-71.645-29.709v39.414l57.805 24.549c2.198 9.991 9.083 18.752 19.198 22.963a32.52 32.52 0 0 0 42.494-17.513 32.6 32.6 0 0 0 2.506-13.39l40.992-29.317 1.007.019c24.556 0 44.516-20.019 44.516-44.608S180.077 52.051 155.484 52c-24.545 0-44.516 19.996-44.516 44.585zm-6.885 84.417c-5.325 12.818-20.018 18.85-32.789 13.529a25.05 25.05 0 0 1-12.906-12.313l14.492 6.006a18.46 18.46 0 0 0 14.132.023 18.45 18.45 0 0 0 10.006-9.98 18.5 18.5 0 0 0-9.943-24.176l-15.016-6.207a24.92 24.92 0 0 1 18.495.282c6.226 2.574 10.987 7.423 13.536 13.624 2.549 6.2 2.535 13.038-.036 19.212m51.433-54.697a29.734 29.734 0 0 1-29.657-29.712 29.74 29.74 0 0 1 29.657-29.706 29.735 29.735 0 0 1 29.665 29.706 29.734 29.734 0 0 1-29.665 29.712m-22.223-29.76a22.306 22.306 0 0 1 22.267-22.322c12.288 0 22.282 9.998 22.282 22.322a22.3 22.3 0 0 1-22.282 22.315 22.3 22.3 0 0 1-22.267-22.315" style="fill:#fff;fill-rule:nonzero" transform="translate(8.662 2.21)scale(1.01683)"/><defs><linearGradient id="a" x1="0" y1="0" x2="1" y2="0" gradientUnits="userSpaceOnUse" gradientTransform="rotate(90 64 64)scale(255.884)"><stop offset="0" style="stop-color:#2089b7;stop-opacity:1"/><stop offset=".32" style="stop-color:#194a7a;stop-opacity:1"/><stop offset=".49" style="stop-color:#163362;stop-opacity:1"/><stop offset=".71" style="stop-color:#11234e;stop-opacity:1"/><stop offset="1" style="stop-color:#0a1c3f;stop-opacity:1"/></linearGradient></defs></svg>
